Newaita-dark/apps/64/com.github.coralynnmay.goodvibesapp.svg

<svg height="64" viewBox="0 0 64 64" width="64" xmlns="http://www.w3.org/2000/svg" xmlns:xlink="http://www.w3.org/1999/xlink"><linearGradient id="a" gradientUnits="userSpaceOnUse" x1="31.75304" x2="31.75304" y1="56.067872" y2="58.71396000006"><stop offset="0" stop-opacity=".27451"/><stop offset="1" stop-opacity="0"/></linearGradient><linearGradient id="b"><stop offset="0" stop-opacity=".313726"/><stop offset=".222222" stop-opacity=".27451"/><stop offset="1" stop-opacity="0"/></linearGradient><radialGradient id="c" cx="450.908936" cy="189.579361" gradientTransform="matrix(.00000035 -.156265 -.281277 -.0000002 104.261296 127.190665)" gradientUnits="userSpaceOnUse" r="21.166656" xlink:href="#b"/><radialGradient id="d" cx="450.908936" cy="189.579361" gradientTransform="matrix(-.00000035 .156265 .281277 .0000002 -40.755227 -15.054958)" gradientUnits="userSpaceOnUse" r="21.166656" xlink:href="#b"/><radialGradient id="e" cx="450.908936" cy="189.579361" gradientTransform="matrix(-.00000035 -.156265 .281277 -.0000002 -40.755227 127.190665)" gradientUnits="userSpaceOnUse" r="21.166656" xlink:href="#b"/><radialGradient id="f" cx="450.908936" cy="189.579361" gradientTransform="matrix(.00000035 .156265 -.281277 .0000002 104.261293 -15.054959)" gradientUnits="userSpaceOnUse" r="21.166656" xlink:href="#b"/><linearGradient id="g" gradientUnits="userSpaceOnUse" x1="21.16869799994" x2="21.16869799994" y1="56.067868" y2="5.79221000013"><stop offset="0" stop-color="#29b6f6"/><stop offset="1" stop-color="#4fc3f7"/></linearGradient><linearGradient id="h" gradientUnits="userSpaceOnUse" x1="31.753048" x2="31.753048" y1="56.067868" y2="5.79221000013"><stop offset="0" stop-color="#5c6bc0"/><stop offset="1" stop-color="#7986cb"/></linearGradient><path d="m11.90625 55.871094h39.691406v2.941406h-39.691406zm0 0" fill="url(#a)"/><path d="m51.597656 56.066406h5.292969v-2.644531h-5.292969zm0 0" fill="url(#c)"/><path d="m11.90625 56.066406h-5.292969v2.648438h5.292969zm0 0" fill="url(#d)"/><path d="m11.90625 56.066406h-5.292969v-2.644531h5.292969zm0 0" fill="url(#e)"/><path d="m51.597656 56.066406h5.292969v2.648438h-5.292969zm0 0" fill="url(#f)"/><path d="m9.261719 5.792969h44.984375c1.460937 0 2.644531 1.183593 2.644531 2.644531v44.984375c0 1.460937-1.183594 2.644531-2.644531 2.644531h-44.984375c-1.460938 0-2.648438-1.183594-2.648438-2.644531v-44.984375c0-1.460938 1.1875-2.644531 2.648438-2.644531zm0 0" fill="url(#g)"/><path d="m9.261719 5.792969c-1.464844 0-2.648438 1.179687-2.648438 2.644531v.332031c0-1.464843 1.183594-2.648437 2.648438-2.648437h44.984375c1.464844 0 2.644531 1.183594 2.644531 2.648437v-.332031c0-1.464844-1.179687-2.644531-2.644531-2.644531zm0 0" fill="#e6e6e6" fill-opacity=".392157"/><path d="m9.261719 56.066406c-1.464844 0-2.648438-1.179687-2.648438-2.644531v-.332031c0 1.46875 1.183594 2.648437 2.648438 2.648437h44.984375c1.464844 0 2.644531-1.179687 2.644531-2.648437v.332031c0 1.464844-1.179687 2.644531-2.644531 2.644531zm0 0" fill-opacity=".196078"/><path d="m74.086675-168.660675h359.840637c11.686384 0 21.15423 9.467846 21.15423 21.15423v359.840637c0 11.686384-9.467846 21.154229-21.15423 21.154229h-359.840637c-11.686384 0-21.185477-9.467845-21.185477-21.154229v-359.840637c0-11.686384 9.499093-21.15423 21.185477-21.15423zm0 0" fill="none" stroke="#212121" stroke-linecap="round" stroke-width="3" transform="matrix(.125012 0 0 .125012 0 26.877566)"/><path d="m16.054688 42.234375c-5.273438-1.382813-7.453126-5.378906-6.253907-11.453125 1.464844-7.398438 6.628907-11.496094 14.445313-11.464844 11.792968.054688 15.316406.285156 15.246094 1.011719-.0625.640625-.132813.695313-1.046876.796875-1.328124.148438-1.339843-.113281.324219 7.707031 1.488281 6.984375 1.640625 7.476563 2.152344 6.921875.664063-.722656 8.667969-14.222656 8.546875-14.417968-.070312-.113282-.617188-.210938-1.207031-.210938-1.125 0-1.199219-.082031-.945313-1.035156.140625-.523438 6.636719-.804688 6.636719-.289063 0 .8125-.460937 1.324219-1.1875 1.324219-.988281 0-.792969-.277344-6.796875 9.722656-7.53125 12.539063-6.558594 11.277344-8.671875 11.203125-1.988281-.070312-1.574219 1.058594-4.21875-11.53125-1.597656-7.625-3.339844-9.71875-8.070313-9.71875-5.367187 0-8.859374 5.046875-9.222656 13.34375-.253906 5.835938 3.007813 8.320313 8.265625 6.292969 1.410157-.542969 1.449219-.613281 2.066407-3.660156.6875-3.398438.679687-3.417969-.898438-3.417969-1.226562 0-1.226562 0-1.078125-.710937.226563-1.0625.183594-1.050782 4.269531-.988282 4.460938.070313 4.082032-.558594 3.03125 5.007813-.777344 4.140625-.585937 3.941406-5.011718 5.144531-2.519532.683594-8.457032.925781-10.375.421875zm0 0" fill="url(#h)"/><path d="m24.246094 19.433594c-7.816406-.035156-12.980469 4.066406-14.445313 11.460937-.230469 1.175781-.335937 2.273438-.320312 3.289063.015625-.882813.121093-1.828125.320312-2.828125 1.464844-7.398438 6.628907-11.496094 14.445313-11.464844 10.945312.050781 14.765625.253906 15.203125.863281.019531-.085937.03125-.1875.042969-.3125.070312-.722656-3.453126-.957031-15.246094-1.007812zm27.644531.207031c-1.914063.003906-4.484375.234375-4.574219.5625-.109375.414063-.15625.667969-.085937.816406.023437-.101562.050781-.21875.085937-.355469.136719-.5 6.050782-.78125 6.59375-.355468.027344-.121094.042969-.25.042969-.390625 0-.195313-.914063-.277344-2.0625-.277344zm-2.582031 2.179687c-1.125 2.191407-7.78125 13.390626-8.386719 14.046876-.511719.558593-.664063.066406-2.152344-6.921876-.800781-3.757812-1.210937-5.648437-1.277343-6.613281-.078126.769531.324218 2.597657 1.277343 7.070313 1.488281 6.988281 1.640625 7.480468 2.152344 6.921875.664063-.71875 8.667969-14.21875 8.546875-14.414063-.019531-.03125-.074219-.0625-.160156-.089844zm-23.035156 9.929688c-1.945313.007812-1.957032.183594-2.132813 1.015625-.0625.300781-.097656.476563-.023437.574219.007812-.035156.015624-.074219.023437-.117188.226563-1.0625.183594-1.050781 4.269531-.988281 2.65625.042969 3.597656-.164063 3.703125.839844.109375-1.519531-.699219-1.25-3.703125-1.296875-.894531-.015625-1.589844-.027344-2.136718-.027344zm.265624 2.738281c-.039062.507813-.191406 1.265625-.421874 2.40625-.617188 3.042969-.65625 3.113281-2.070313 3.65625-4.988281 1.925781-8.179687-.214843-8.273437-5.429687-.089844 5.546875 3.140624 7.871094 8.273437 5.890625 1.414063-.542969 1.453125-.613281 2.070313-3.660157.3125-1.550781.484374-2.398437.421874-2.863281zm0 0" fill="#fff" fill-opacity=".392157"/><path d="m53.757812 20.8125c-.199218.335938-.542968.53125-.992187.53125-.988281 0-.792969-.277344-6.796875 9.71875-7.53125 12.539062-6.558594 11.277344-8.671875 11.203125-1.988281-.070313-1.574219 1.058594-4.21875-11.53125-1.597656-7.621094-3.339844-9.71875-8.070313-9.71875-5.371093 0-8.859374 5.050781-9.222656 13.347656-.015625.375-.015625.738281-.003906 1.085938 0-.050781.003906-.105469.003906-.160157.363282-8.296874 3.851563-13.347656 9.222656-13.347656 4.730469 0 6.472657 2.097656 8.070313 9.722656 2.644531 12.589844 2.230469 11.460938 4.21875 11.53125 2.113281.074219 1.140625 1.332032 8.671875-11.203124 6.003906-10 5.808594-9.722657 6.796875-9.722657.726563 0 1.1875-.511719 1.1875-1.324219 0-.054687-.070313-.097656-.195313-.132812zm-14.503906.359375c-.148437.085937-.386718.125-.808594.171875-.75.082031-1.082031.035156-.925781 1.390625.105469-.410156.417969-.40625.925781-.464844.914063-.101562.984376-.15625 1.046876-.796875.011718-.113281-.0625-.210937-.238282-.300781zm8.066406.050781c0 .003906 0 .007813-.003906.011719-.253906.953125-.179687 1.035156.945313 1.035156.308593 0 .605469.027344.828125.070313.253906-.46875.394531-.757813.378906-.785156-.070312-.117188-.617188-.210938-1.207031-.210938-.5 0-.792969-.015625-.941407-.121094zm-15.238281 12.246094c-.09375.738281-.339843 1.824219-.640625 3.417969-.777344 4.140625-.585937 3.941406-5.011718 5.140625-2.519532.683594-8.457032.925781-10.375.421875-4.175782-1.09375-6.414063-3.824219-6.566407-7.933594-.164062 4.625 2.082031 7.6875 6.566407 8.863281 1.917968.503906 7.855468.261719 10.375-.421875 4.425781-1.203125 4.234374-1.003906 5.011718-5.144531.464844-2.460938.796875-3.710938.640625-4.34375zm-7.878906.039062c-.019531.085938-.039063.179688-.0625.285157-.148437.710937-.148437.710937 1.078125.710937.765625 0 1.160156.003906 1.289062.394532.175782-1.308594-.140624-1.324219-1.289062-1.324219-.558594 0-.863281 0-1.015625-.066407zm0 0" fill-opacity=".235294"/><path d="m128.425236 122.842738c-42.183472-11.061444-59.619307-43.027141-50.026473-91.616251 11.717631-59.181849 53.026187-91.959969 115.551466-91.709993 94.334741.437459 122.51955 2.281033 121.957103 8.092978-.499952 5.12451-1.062398 5.561968-8.3742 6.374391-10.623985 1.187386-10.717726-.906164 2.593502 61.650363 11.905114 55.869664 13.123747 59.806788 17.217106 55.369712 5.311993-5.780698 69.337129-113.770385 68.368471-115.332736-.562446-.906164-4.937028-1.687339-9.655328-1.687339-8.99914 0-9.592834-.656187-7.561777-8.280459 1.124892-4.187101 53.08868-6.436886 53.08868-2.31228 0 6.49938-3.687148 10.592739-9.499093 10.592739-7.905495 0-6.343144-2.218538-54.369808 77.773823-60.244247 100.302921-52.46374 90.210135-69.368376 89.616442-15.904731-.562446-12.592547 8.467941-33.746777-92.241192-12.78003-60.994175-26.716199-77.742575-64.556335-77.742575-42.9334 0-70.868233 40.371144-73.774205 106.739806-2.031056 46.683042 24.060202 66.556145 66.118686 50.338943 11.280173-4.343335 11.592643-4.905781 16.529671-29.278454 5.499475-27.184904 5.436981-27.341139-7.186813-27.341139-9.811563 0-9.811563 0-8.624177-5.686957 1.812327-8.499188 1.46861-8.405447 34.152989-7.905495 35.684092.562446 32.653132-4.468323 24.247684 40.058675-6.218156 33.121837-4.687052 31.528239-40.089921 41.15232-20.154326 5.468228-67.64979 7.405543-82.992075 3.374678zm0 0" fill="none" stroke="#212121" stroke-width="3" transform="matrix(.125012 0 0 .125012 0 26.877566)"/></svg>

<?xml version="1.0" encoding="UTF-8"?>
<svg xmlns="http://www.w3.org/2000/svg" xmlns:xlink="http://www.w3.org/1999/xlink" width="64px" height="64px" viewBox="0 0 64 64" version="1.1">
<defs>
<linearGradient id="linear0" gradientUnits="userSpaceOnUse" x1="254" y1="233.5" x2="254" y2="254.666672" gradientTransform="matrix(0.125012,0,0,0.125012,-0.00000763012,26.87757)">
<stop offset="0" style="stop-color:rgb(0%,0%,0%);stop-opacity:0.27451;"/>
<stop offset="1" style="stop-color:rgb(0%,0%,0%);stop-opacity:0;"/>
</linearGradient>
<radialGradient id="radial0" gradientUnits="userSpaceOnUse" cx="450.908936" cy="189.579361" fx="450.908936" fy="189.579361" r="21.166656" gradientTransform="matrix(0.000000348341,-0.156265,-0.281277,-0.000000203077,104.261296,127.190665)">
<stop offset="0" style="stop-color:rgb(0%,0%,0%);stop-opacity:0.313726;"/>
<stop offset="0.222222" style="stop-color:rgb(0%,0%,0%);stop-opacity:0.27451;"/>
<stop offset="1" style="stop-color:rgb(0%,0%,0%);stop-opacity:0;"/>
</radialGradient>
<radialGradient id="radial1" gradientUnits="userSpaceOnUse" cx="450.908936" cy="189.579361" fx="450.908936" fy="189.579361" r="21.166656" gradientTransform="matrix(-0.000000348341,0.156265,0.281277,0.000000203077,-40.755227,-15.054958)">
<stop offset="0" style="stop-color:rgb(0%,0%,0%);stop-opacity:0.313726;"/>
<stop offset="0.222222" style="stop-color:rgb(0%,0%,0%);stop-opacity:0.27451;"/>
<stop offset="1" style="stop-color:rgb(0%,0%,0%);stop-opacity:0;"/>
</radialGradient>
<radialGradient id="radial2" gradientUnits="userSpaceOnUse" cx="450.908936" cy="189.579361" fx="450.908936" fy="189.579361" r="21.166656" gradientTransform="matrix(-0.000000348341,-0.156265,0.281277,-0.000000203077,-40.755227,127.190665)">
<stop offset="0" style="stop-color:rgb(0%,0%,0%);stop-opacity:0.313726;"/>
<stop offset="0.222222" style="stop-color:rgb(0%,0%,0%);stop-opacity:0.27451;"/>
<stop offset="1" style="stop-color:rgb(0%,0%,0%);stop-opacity:0;"/>
</radialGradient>
<radialGradient id="radial3" gradientUnits="userSpaceOnUse" cx="450.908936" cy="189.579361" fx="450.908936" fy="189.579361" r="21.166656" gradientTransform="matrix(0.000000348341,0.156265,-0.281277,0.000000203077,104.261293,-15.054959)">
<stop offset="0" style="stop-color:rgb(0%,0%,0%);stop-opacity:0.313726;"/>
<stop offset="0.222222" style="stop-color:rgb(0%,0%,0%);stop-opacity:0.27451;"/>
<stop offset="1" style="stop-color:rgb(0%,0%,0%);stop-opacity:0;"/>
</radialGradient>
<linearGradient id="linear1" gradientUnits="userSpaceOnUse" x1="169.333328" y1="233.5" x2="169.333328" y2="-168.666656" gradientTransform="matrix(0.125012,0,0,0.125012,0,26.877566)">
<stop offset="0" style="stop-color:rgb(16.078432%,71.372551%,96.470588%);stop-opacity:1;"/>
<stop offset="1" style="stop-color:rgb(30.980393%,76.47059%,96.862745%);stop-opacity:1;"/>
</linearGradient>
<linearGradient id="linear2" gradientUnits="userSpaceOnUse" x1="254" y1="233.5" x2="254" y2="-168.666656" gradientTransform="matrix(0.125012,0,0,0.125012,0,26.877566)">
<stop offset="0" style="stop-color:rgb(36.078432%,41.960785%,75.294119%);stop-opacity:1;"/>
<stop offset="1" style="stop-color:rgb(47.450981%,52.549022%,79.607844%);stop-opacity:1;"/>
</linearGradient>
</defs>
<g id="surface1">
<path style=" stroke:none;fill-rule:nonzero;fill:url(#linear0);" d="M 11.90625 55.871094 L 51.597656 55.871094 L 51.597656 58.8125 L 11.90625 58.8125 Z M 11.90625 55.871094 "/>
<path style=" stroke:none;fill-rule:nonzero;fill:url(#radial0);" d="M 51.597656 56.066406 L 56.890625 56.066406 L 56.890625 53.421875 L 51.597656 53.421875 Z M 51.597656 56.066406 "/>
<path style=" stroke:none;fill-rule:nonzero;fill:url(#radial1);" d="M 11.90625 56.066406 L 6.613281 56.066406 L 6.613281 58.714844 L 11.90625 58.714844 Z M 11.90625 56.066406 "/>
<path style=" stroke:none;fill-rule:nonzero;fill:url(#radial2);" d="M 11.90625 56.066406 L 6.613281 56.066406 L 6.613281 53.421875 L 11.90625 53.421875 Z M 11.90625 56.066406 "/>
<path style=" stroke:none;fill-rule:nonzero;fill:url(#radial3);" d="M 51.597656 56.066406 L 56.890625 56.066406 L 56.890625 58.714844 L 51.597656 58.714844 Z M 51.597656 56.066406 "/>
<path style=" stroke:none;fill-rule:nonzero;fill:url(#linear1);" d="M 9.261719 5.792969 L 54.246094 5.792969 C 55.707031 5.792969 56.890625 6.976562 56.890625 8.4375 L 56.890625 53.421875 C 56.890625 54.882812 55.707031 56.066406 54.246094 56.066406 L 9.261719 56.066406 C 7.800781 56.066406 6.613281 54.882812 6.613281 53.421875 L 6.613281 8.4375 C 6.613281 6.976562 7.800781 5.792969 9.261719 5.792969 Z M 9.261719 5.792969 "/>
<path style=" stroke:none;fill-rule:nonzero;fill:rgb(90.196079%,90.196079%,90.196079%);fill-opacity:0.392157;" d="M 9.261719 5.792969 C 7.796875 5.792969 6.613281 6.972656 6.613281 8.4375 L 6.613281 8.769531 C 6.613281 7.304688 7.796875 6.121094 9.261719 6.121094 L 54.246094 6.121094 C 55.710938 6.121094 56.890625 7.304688 56.890625 8.769531 L 56.890625 8.4375 C 56.890625 6.972656 55.710938 5.792969 54.246094 5.792969 Z M 9.261719 5.792969 "/>
<path style=" stroke:none;fill-rule:nonzero;fill:rgb(0%,0%,0%);fill-opacity:0.196078;" d="M 9.261719 56.066406 C 7.796875 56.066406 6.613281 54.886719 6.613281 53.421875 L 6.613281 53.089844 C 6.613281 54.558594 7.796875 55.738281 9.261719 55.738281 L 54.246094 55.738281 C 55.710938 55.738281 56.890625 54.558594 56.890625 53.089844 L 56.890625 53.421875 C 56.890625 54.886719 55.710938 56.066406 54.246094 56.066406 Z M 9.261719 56.066406 "/>
<path style="fill:none;stroke-width:3;stroke-linecap:round;stroke-linejoin:miter;stroke:rgb(12.941177%,12.941177%,12.941177%);stroke-opacity:1;stroke-miterlimit:4;" d="M 74.086675 -168.660675 L 433.927312 -168.660675 C 445.613696 -168.660675 455.081542 -159.192829 455.081542 -147.506445 L 455.081542 212.334192 C 455.081542 224.020576 445.613696 233.488421 433.927312 233.488421 L 74.086675 233.488421 C 62.400291 233.488421 52.901198 224.020576 52.901198 212.334192 L 52.901198 -147.506445 C 52.901198 -159.192829 62.400291 -168.660675 74.086675 -168.660675 Z M 74.086675 -168.660675 " transform="matrix(0.125012,0,0,0.125012,0,26.877566)"/>
<path style=" stroke:none;fill-rule:nonzero;fill:url(#linear2);" d="M 16.054688 42.234375 C 10.78125 40.851562 8.601562 36.855469 9.800781 30.78125 C 11.265625 23.382812 16.429688 19.285156 24.246094 19.316406 C 36.039062 19.371094 39.5625 19.601562 39.492188 20.328125 C 39.429688 20.96875 39.359375 21.023438 38.445312 21.125 C 37.117188 21.273438 37.105469 21.011719 38.769531 28.832031 C 40.257812 35.816406 40.410156 36.308594 40.921875 35.753906 C 41.585938 35.03125 49.589844 21.53125 49.46875 21.335938 C 49.398438 21.222656 48.851562 21.125 48.261719 21.125 C 47.136719 21.125 47.0625 21.042969 47.316406 20.089844 C 47.457031 19.566406 53.953125 19.285156 53.953125 19.800781 C 53.953125 20.613281 53.492188 21.125 52.765625 21.125 C 51.777344 21.125 51.972656 20.847656 45.96875 30.847656 C 38.4375 43.386719 39.410156 42.125 37.296875 42.050781 C 35.308594 41.980469 35.722656 43.109375 33.078125 30.519531 C 31.480469 22.894531 29.738281 20.800781 25.007812 20.800781 C 19.640625 20.800781 16.148438 25.847656 15.785156 34.144531 C 15.53125 39.980469 18.792969 42.464844 24.050781 40.4375 C 25.460938 39.894531 25.5 39.824219 26.117188 36.777344 C 26.804688 33.378906 26.796875 33.359375 25.21875 33.359375 C 23.992188 33.359375 23.992188 33.359375 24.140625 32.648438 C 24.367188 31.585938 24.324219 31.597656 28.410156 31.660156 C 32.871094 31.730469 32.492188 31.101562 31.441406 36.667969 C 30.664062 40.808594 30.855469 40.609375 26.429688 41.8125 C 23.910156 42.496094 17.972656 42.738281 16.054688 42.234375 Z M 16.054688 42.234375 "/>
<path style=" stroke:none;fill-rule:nonzero;fill:rgb(100%,100%,100%);fill-opacity:0.392157;" d="M 24.246094 19.433594 C 16.429688 19.398438 11.265625 23.5 9.800781 30.894531 C 9.570312 32.070312 9.464844 33.167969 9.480469 34.183594 C 9.496094 33.300781 9.601562 32.355469 9.800781 31.355469 C 11.265625 23.957031 16.429688 19.859375 24.246094 19.890625 C 35.191406 19.941406 39.011719 20.144531 39.449219 20.753906 C 39.46875 20.667969 39.480469 20.566406 39.492188 20.441406 C 39.5625 19.71875 36.039062 19.484375 24.246094 19.433594 Z M 51.890625 19.640625 C 49.976562 19.644531 47.40625 19.875 47.316406 20.203125 C 47.207031 20.617188 47.160156 20.871094 47.230469 21.019531 C 47.253906 20.917969 47.28125 20.800781 47.316406 20.664062 C 47.453125 20.164062 53.367188 19.882812 53.910156 20.308594 C 53.9375 20.1875 53.953125 20.058594 53.953125 19.917969 C 53.953125 19.722656 53.039062 19.640625 51.890625 19.640625 Z M 49.308594 21.820312 C 48.183594 24.011719 41.527344 35.210938 40.921875 35.867188 C 40.410156 36.425781 40.257812 35.933594 38.769531 28.945312 C 37.96875 25.1875 37.558594 23.296875 37.492188 22.332031 C 37.414062 23.101562 37.816406 24.929688 38.769531 29.402344 C 40.257812 36.390625 40.410156 36.882812 40.921875 36.324219 C 41.585938 35.605469 49.589844 22.105469 49.46875 21.910156 C 49.449219 21.878906 49.394531 21.847656 49.308594 21.820312 Z M 26.273438 31.75 C 24.328125 31.757812 24.316406 31.933594 24.140625 32.765625 C 24.078125 33.066406 24.042969 33.242188 24.117188 33.339844 C 24.125 33.304688 24.132812 33.265625 24.140625 33.222656 C 24.367188 32.160156 24.324219 32.171875 28.410156 32.234375 C 31.066406 32.277344 32.007812 32.070312 32.113281 33.074219 C 32.222656 31.554688 31.414062 31.824219 28.410156 31.777344 C 27.515625 31.761719 26.820312 31.75 26.273438 31.75 Z M 26.539062 34.488281 C 26.5 34.996094 26.347656 35.753906 26.117188 36.894531 C 25.5 39.9375 25.460938 40.007812 24.046875 40.550781 C 19.058594 42.476562 15.867188 40.335938 15.773438 35.121094 C 15.683594 40.667969 18.914062 42.992188 24.046875 41.011719 C 25.460938 40.46875 25.5 40.398438 26.117188 37.351562 C 26.429688 35.800781 26.601562 34.953125 26.539062 34.488281 Z M 26.539062 34.488281 "/>
<path style=" stroke:none;fill-rule:nonzero;fill:rgb(0%,0%,0%);fill-opacity:0.235294;" d="M 53.757812 20.8125 C 53.558594 21.148438 53.214844 21.34375 52.765625 21.34375 C 51.777344 21.34375 51.972656 21.066406 45.96875 31.0625 C 38.4375 43.601562 39.410156 42.339844 37.296875 42.265625 C 35.308594 42.195312 35.722656 43.324219 33.078125 30.734375 C 31.480469 23.113281 29.738281 21.015625 25.007812 21.015625 C 19.636719 21.015625 16.148438 26.066406 15.785156 34.363281 C 15.769531 34.738281 15.769531 35.101562 15.78125 35.449219 C 15.78125 35.398438 15.785156 35.34375 15.785156 35.289062 C 16.148438 26.992188 19.636719 21.941406 25.007812 21.941406 C 29.738281 21.941406 31.480469 24.039062 33.078125 31.664062 C 35.722656 44.253906 35.308594 43.125 37.296875 43.195312 C 39.410156 43.269531 38.4375 44.527344 45.96875 31.992188 C 51.972656 21.992188 51.777344 22.269531 52.765625 22.269531 C 53.492188 22.269531 53.953125 21.757812 53.953125 20.945312 C 53.953125 20.890625 53.882812 20.847656 53.757812 20.8125 Z M 39.253906 21.171875 C 39.105469 21.257812 38.867188 21.296875 38.445312 21.34375 C 37.695312 21.425781 37.363281 21.378906 37.519531 22.734375 C 37.625 22.324219 37.9375 22.328125 38.445312 22.269531 C 39.359375 22.167969 39.429688 22.113281 39.492188 21.472656 C 39.503906 21.359375 39.429688 21.261719 39.253906 21.171875 Z M 47.320312 21.222656 C 47.320312 21.226562 47.320312 21.230469 47.316406 21.234375 C 47.0625 22.1875 47.136719 22.269531 48.261719 22.269531 C 48.570312 22.269531 48.867188 22.296875 49.089844 22.339844 C 49.34375 21.871094 49.484375 21.582031 49.46875 21.554688 C 49.398438 21.4375 48.851562 21.34375 48.261719 21.34375 C 47.761719 21.34375 47.46875 21.328125 47.320312 21.222656 Z M 32.082031 33.46875 C 31.988281 34.207031 31.742188 35.292969 31.441406 36.886719 C 30.664062 41.027344 30.855469 40.828125 26.429688 42.027344 C 23.910156 42.710938 17.972656 42.953125 16.054688 42.449219 C 11.878906 41.355469 9.640625 38.625 9.488281 34.515625 C 9.324219 39.140625 11.570312 42.203125 16.054688 43.378906 C 17.972656 43.882812 23.910156 43.640625 26.429688 42.957031 C 30.855469 41.753906 30.664062 41.953125 31.441406 37.8125 C 31.90625 35.351562 32.238281 34.101562 32.082031 33.46875 Z M 24.203125 33.507812 C 24.183594 33.59375 24.164062 33.6875 24.140625 33.792969 C 23.992188 34.503906 23.992188 34.503906 25.21875 34.503906 C 25.984375 34.503906 26.378906 34.507812 26.507812 34.898438 C 26.683594 33.589844 26.367188 33.574219 25.21875 33.574219 C 24.660156 33.574219 24.355469 33.574219 24.203125 33.507812 Z M 24.203125 33.507812 "/>
<path style="fill:none;stroke-width:3;stroke-linecap:butt;stroke-linejoin:miter;stroke:rgb(12.941177%,12.941177%,12.941177%);stroke-opacity:1;stroke-miterlimit:4;" d="M 128.425236 122.842738 C 86.241764 111.781294 68.805929 79.815597 78.398763 31.226487 C 90.116394 -27.955362 131.42495 -60.733482 193.950229 -60.483506 C 288.28497 -60.046047 316.469779 -58.202473 315.907332 -52.390528 C 315.40738 -47.266018 314.844934 -46.82856 307.533132 -46.016137 C 296.909147 -44.828751 296.815406 -46.922301 310.126634 15.634226 C 322.031748 71.50389 323.250381 75.441014 327.34374 71.003938 C 332.655733 65.22324 396.680869 -42.766447 395.712211 -44.328798 C 395.149765 -45.234962 390.775183 -46.016137 386.056883 -46.016137 C 377.057743 -46.016137 376.464049 -46.672324 378.495106 -54.296596 C 379.619998 -58.483697 431.583786 -60.733482 431.583786 -56.608876 C 431.583786 -50.109496 427.896638 -46.016137 422.084693 -46.016137 C 414.179198 -46.016137 415.741549 -48.234675 367.714885 31.757686 C 307.470638 132.060607 315.251145 121.967821 298.346509 121.374128 C 282.441778 120.811682 285.753962 129.842069 264.599732 29.132936 C 251.819702 -31.861239 237.883533 -48.609639 200.043397 -48.609639 C 157.109997 -48.609639 129.175164 -8.238495 126.269192 58.130167 C 124.238136 104.813209 150.329394 124.686312 192.387878 108.46911 C 203.668051 104.125775 203.980521 103.563329 208.917549 79.190656 C 214.417024 52.005752 214.35453 51.849517 201.730736 51.849517 C 191.919173 51.849517 191.919173 51.849517 193.106559 46.16256 C 194.918886 37.663372 194.575169 37.757113 227.259548 38.257065 C 262.94364 38.819511 259.91268 33.788742 251.507232 78.31574 C 245.289076 111.437577 246.82018 109.843979 211.417311 119.46806 C 191.262985 124.936288 143.767521 126.873603 128.425236 122.842738 Z M 128.425236 122.842738 " transform="matrix(0.125012,0,0,0.125012,0,26.877566)"/>
</g>
</svg>
